X: 1
T: The Maid At The Well
R: jig
M: 6/8
L: 1/8
K: Gmaj
|:GED DED | GFG c2e | dcB AGA | BAG E2F |
| GED DED | GFG c2e | dcB AGA | BGF G3 :|
|: gdd edd | gdB c2e | dcB AGA | BAG E3 |
|1 g2d e2d | gdB c2e | dcB AGA | BGF G3:|
|2 GED DED | GFG c2e | dcB AGA | BGF G3 |


Tune 752	Setting 13853

